src/status/24/gpm-brightness-lcd-invalid.svg

<svg width="24" height="24" version="1.1" xmlns="http://www.w3.org/2000/svg">
 <g transform="translate(4,4)">
  <path d="m7.75 2v2h0.5v-2zm-3.8965 1.5-0.35352 0.35352 1.7676 1.7676 0.35352-0.35352zm8.1465 0-1.7676 1.7676 0.35352 0.35352 1.7676-1.7676zm-5.5 1.9062a3 3 0 0 0-1.5 2.5938 3 3 0 0 0 1.5 2.5938v-0.59375a1.0001 1.0001 0 0 1 0.13477-0.5 1.0001 1.0001 0 0 1-0.00195-0.00195 2.0292 2.0292 0 0 1-0.65039-1.4863 2.0292 2.0292 0 0 1 0.51758-1.3496v-1.2559zm3 0v1.2285a2.0292 2.0292 0 0 1 0.54102 1.377 2.0292 2.0292 0 0 1-0.66797 1.502 1.0001 1.0001 0 0 1 0.12695 0.48633v0.59375a3 3 0 0 0 1.5-2.5938 3 3 0 0 0-1.5-2.5938zm-7.5 2.3438v0.5h2.5v-0.5zm9.5 0v0.5h2.5v-0.5zm-6.2324 2.6289-1.7676 1.7676 0.35352 0.35352 1.7676-1.7676zm5.4648 0-0.35352 0.35352 1.7676 1.7676 0.35352-0.35352zm-2.9824 1.6211v2h0.5v-2z" fill="#363636" style="paint-order:fill markers stroke"/>
  <path d="m7.5 5v4h1v-4zm0 5v1h1v-1z" color="#5294e2" fill="#f55"/>
 </g>
</svg>

<svg xmlns="http://www.w3.org/2000/svg" width="24" height="24">
    <path fill="#050505" d="M7.75 2v2h.5V2zM3.854 3.5l-.354.354L5.268 5.62l.353-.353zM12 3.5l-1.768 1.768.354.353 1.768-1.767zM6.5 5.406A3 3 0 0 0 5 8a3 3 0 0 0 1.5 2.594V10a1 1 0 0 1 .135-.5 1 1 0 0 1-.002-.002 2.03 2.03 0 0 1-.65-1.486 2.03 2.03 0 0 1 .517-1.35V5.406zm3 0v1.229a2.03 2.03 0 0 1 .541 1.377 2.03 2.03 0 0 1-.668 1.502A1 1 0 0 1 9.5 10v.594A3 3 0 0 0 11 8a3 3 0 0 0-1.5-2.594zM2 7.75v.5h2.5v-.5zm9.5 0v.5H14v-.5zm-6.232 2.629L3.5 12.147l.354.353 1.767-1.768zm5.464 0-.353.353 1.767 1.768.354-.354zM7.75 12v2h.5v-2z" opacity=".7" style="paint-order:fill markers stroke" transform="translate(4 4)"/>
    <path fill="#ec9b97" d="M11.5 9v4h1V9zm0 5v1h1v-1z" color="#a0b6cb"/>
</svg>
